;Sliced by ideaMaker 4.2.3.5680, 2022-06-09 10:26:52 UTC-0500
;Dimension: 305.000 305.000 305.000 0.400
;Plate Shape: 0
;Origin Center: 0
;Extruder Offset #1: 25.000 0.000
;Filament Diameter #1: 1.750
;Filament Diameter #2: 1.750
;Filament Compensation #1: 94.00
;Filament Compensation #2: 100.00
;Filament Density #1: 1240.00
;Filament Density #2: 1240.00
;Filament Type #1: PLA
;Filament Type #2: 
;Filament Name #1: [Raise3D] PLA 1.75mm
;Filament Name #2: 
;Firmware: Marlin
;Bounding Box: 105.500 199.498 114.292 190.708 0.000 6.320
;Model Gap: 0.200
M221 T0 S94.00
M140 S60.00
M104 T0 S215.00
M109 T0 S215.00
T0
M190 S60.00
G21
G90
M82
M107
G28 X0 Y0
G28 Z0
G1 Z15.0 F300
G92 E0
G1 F140 E29
G1 X20 Y0 F140 E30
G92 E0
G1 F9000.0
M117 Printing...
M1001
;TOTAL_NUM: 1
;PRINTING_TIME: 0
;REMAINING_TIME: 4809
M106 S0
;LAYER:-2
;Z:0.500
;HEIGHT:0.500
;PRINTING: NON-OBJECT
;PRINTING_ID: -1
G0 F9000 X107.219 Y116.074
G0 F300 Z0.500
;TYPE:RAFT
;WIDTH:0.800
G1 F480 X107.604 Y115.725 E0.0864
G1 X108.150 Y115.343 E0.1972
G1 X108.618 Y115.100 E0.2849
G1 X108.956 Y114.964 E0.3455
G1 X109.609 Y114.784 E0.4582
G1 X110.118 Y114.712 E0.5437
G1 X110.561 Y114.692 E0.6174
G1 X194.552 Y114.695 E14.5852
G1 X194.923 Y114.716 E14.6470
G1 X195.458 Y114.797 E14.7369
G1 X195.952 Y114.932 E14.8221
G1 X196.431 Y115.123 E14.9079
G1 X197.031 Y115.456 E15.0220
G1 X197.437 Y115.757 E15.1060
G1 X197.819 Y116.113 E15.1929
G1 X198.164 Y116.518 E15.2813
G1 X198.368 Y116.811 E15.3407
G1 X198.691 Y117.407 E15.4534
G1 X198.875 Y117.885 E15.5386
G1 X199.008 Y118.397 E15.6266
G1 X199.065 Y118.762 E15.6880
G1 X199.098 Y119.256 E15.7704
G1 X199.097 Y185.749 E26.8282
G1 X199.054 Y186.317 E26.9229
G1 X198.963 Y186.807 E27.0058
G1 X198.803 Y187.321 E27.0953
G1 X198.598 Y187.788 E27.1802
G1 X198.338 Y188.236 E27.2663
G1 X198.035 Y188.645 E27.3509
G1 X197.678 Y189.028 E27.4380
G1 X197.396 Y189.276 E27.5005
G1 X196.850 Y189.657 E27.6112
G1 X196.382 Y189.900 E27.6989
G1 X196.044 Y190.036 E27.7595
G1 X195.391 Y190.216 E27.8721
G1 X194.882 Y190.288 E27.9576
G1 X194.440 Y190.308 E28.0312
G1 X110.554 Y190.308 E41.9815
G1 X110.076 Y190.284 E42.0611
G1 X109.542 Y190.203 E42.1509
G1 X109.048 Y190.068 E42.2361
G1 X108.567 Y189.877 E42.3221
G1 X108.101 Y189.627 E42.4101
G1 X107.661 Y189.322 E42.4991
G1 X107.282 Y188.989 E42.5830
G1 X106.933 Y188.604 E42.6694
G1 X106.548 Y188.054 E42.7811
G1 X106.369 Y187.721 E42.8439
G1 X106.171 Y187.248 E42.9292
G1 X105.992 Y186.599 E43.0412
G1 X105.920 Y186.090 E43.1267
G1 X105.900 Y185.648 E43.2002
G1 X105.900 Y119.346 E54.2263
G1 X105.924 Y118.868 E54.3059
G1 X106.005 Y118.334 E54.3957
G1 X106.140 Y117.840 E54.4809
G1 X106.331 Y117.359 E54.5670
G1 X106.581 Y116.893 E54.6549
G1 X106.891 Y116.447 E54.7452
G1 X107.219 Y116.074 E54.8278
G0 F9000 X107.868 Y115.882
G1 F480 X107.868 Y189.124 E67.0080
G0 F9000 X110.292 Y190.015
G1 F480 X110.292 Y114.984 E79.4857
G0 F9000 X112.716 Y114.973
G1 F480 X112.716 Y190.028 E91.9674
G0 F9000 X115.140 Y190.028
G1 F480 X115.140 Y114.973 E104.4491
G0 F9000 X117.564 Y114.973
G1 F480 X117.564 Y190.028 E116.9308
G0 F9000 X119.988 Y190.028
G1 F480 X119.988 Y114.973 E129.4125
G0 F9000 X122.412 Y114.973
G1 F480 X122.412 Y190.028 E141.8942
G0 F9000 X124.836 Y190.028
G1 F480 X124.836 Y114.973 E154.3759
G0 F9000 X127.260 Y114.973
G1 F480 X127.260 Y190.028 E166.8576
G0 F9000 X129.684 Y190.028
G1 F480 X129.684 Y114.973 E179.3393
G0 F9000 X132.108 Y114.973
G1 F480 X132.108 Y190.028 E191.8210
G0 F9000 X134.532 Y190.028
G1 F480 X134.532 Y114.973 E204.3027
G0 F9000 X136.956 Y114.973
G1 F480 X136.956 Y190.028 E216.7844
G0 F9000 X139.380 Y190.028
G1 F480 X139.380 Y114.974 E229.2659
G0 F9000 X141.804 Y114.974
G1 F480 X141.804 Y190.028 E241.7475
G0 F9000 X144.228 Y190.028
G1 F480 X144.228 Y114.974 E254.2290
G0 F9000 X146.652 Y114.974
G1 F480 X146.652 Y190.028 E266.7105
G0 F9000 X149.076 Y190.028
G1 F480 X149.076 Y114.974 E279.1920
G0 F9000 X151.500 Y114.974
G1 F480 X151.500 Y190.028 E291.6736
G0 F9000 X153.924 Y190.028
G1 F480 X153.924 Y114.974 E304.1551
G0 F9000 X156.348 Y114.974
G1 F480 X156.348 Y190.028 E316.6366
G0 F9000 X158.772 Y190.028
G1 F480 X158.772 Y114.974 E329.1182
G0 F9000 X161.196 Y114.974
G1 F480 X161.196 Y190.028 E341.5997
G0 F9000 X163.620 Y190.028
G1 F480 X163.620 Y114.974 E354.0812
G0 F9000 X166.044 Y114.974
G1 F480 X166.044 Y190.028 E366.5628
G0 F9000 X168.468 Y190.028
G1 F480 X168.468 Y114.975 E379.0441
G0 F9000 X170.892 Y114.975
G1 F480 X170.892 Y190.028 E391.5255
G0 F9000 X173.316 Y190.028
G1 F480 X173.316 Y114.975 E404.0069
G0 F9000 X175.740 Y114.975
G1 F480 X175.740 Y190.028 E416.4882
G0 F9000 X178.164 Y190.028
G1 F480 X178.164 Y114.975 E428.9696
G0 F9000 X180.588 Y114.975
G1 F480 X180.588 Y190.028 E441.4510
G0 F9000 X183.012 Y190.028
G1 F480 X183.012 Y114.975 E453.9323
G0 F9000 X185.436 Y114.975
G1 F480 X185.436 Y190.028 E466.4137
G0 F9000 X187.860 Y190.028
G1 F480 X187.860 Y114.975 E478.8950
G0 F9000 X190.284 Y114.975
G1 F480 X190.284 Y190.028 E491.3764
G0 F9000 X192.708 Y190.028
G1 F480 X192.708 Y114.975 E503.8578
G0 F9000 X195.132 Y115.031
G1 F480 X195.132 Y189.971 E516.3203
G0 F9000 X197.556 Y188.749
G1 F480 X197.556 Y116.252 E528.3766
;PRINTING_TIME: 402
;REMAINING_TIME: 4407
M106 S255
;LAYER:-2
;Z:1.000
;HEIGHT:0.500
;PRINTING: NON-OBJECT
;PRINTING_ID: -1
G0 F300 Z1.000
G0 F9000 X197.819 Y116.113
;TYPE:RAFT
;WIDTH:0.800
G1 F960 X198.164 Y116.518 E528.4651
G1 X198.368 Y116.811 E528.5245
G1 X198.691 Y117.407 E528.6372
G1 X198.875 Y117.885 E528.7224
G1 X199.008 Y118.397 E528.8104
G1 X199.065 Y118.762 E528.8718
G1 X199.098 Y119.256 E528.9542
G1 X199.097 Y185.749 E540.0120
G1 X199.054 Y186.317 E540.1067
G1 X198.963 Y186.807 E540.1896
G1 X198.803 Y187.321 E540.2791
G1 X198.598 Y187.788 E540.3639
G1 X198.338 Y188.236 E540.4501
G1 X198.035 Y188.645 E540.5347
G1 X197.678 Y189.028 E540.6218
G1 X197.396 Y189.276 E540.6842
G1 X196.850 Y189.657 E540.7950
G1 X196.382 Y189.900 E540.8827
G1 X196.044 Y190.036 E540.9433
G1 X195.391 Y190.216 E541.0559
G1 X194.882 Y190.288 E541.1414
G1 X194.440 Y190.308 E541.2150
G1 X110.554 Y190.308 E555.1653
G1 X110.076 Y190.284 E555.2449
G1 X109.542 Y190.203 E555.3347
G1 X109.048 Y190.068 E555.4198
G1 X108.567 Y189.877 E555.5059
G1 X108.101 Y189.627 E555.5939
G1 X107.661 Y189.322 E555.6829
G1 X107.282 Y188.989 E555.7668
G1 X106.933 Y188.604 E555.8532
G1 X106.548 Y188.054 E555.9648
G1 X106.369 Y187.721 E556.0277
G1 X106.171 Y187.248 E556.1130
G1 X105.992 Y186.599 E556.2250
G1 X105.920 Y186.090 E556.3104
G1 X105.900 Y185.648 E556.3840
G1 X105.900 Y119.346 E567.4101
G1 X105.924 Y118.868 E567.4897
G1 X106.005 Y118.334 E567.5795
G1 X106.140 Y117.840 E567.6647
G1 X106.331 Y117.359 E567.7507
G1 X106.581 Y116.893 E567.8387
G1 X106.891 Y116.447 E567.9290
G1 X107.219 Y116.074 E568.0116
G1 X107.604 Y115.725 E568.0980
G1 X108.150 Y115.343 E568.2088
G1 X108.618 Y115.100 E568.2965
G1 X108.956 Y114.964 E568.3571
G1 X109.609 Y114.784 E568.4698
G1 X110.118 Y114.712 E568.5553
G1 X110.561 Y114.692 E568.6290
G1 X194.552 Y114.695 E582.5968
G1 X194.923 Y114.716 E582.6586
G1 X195.458 Y114.797 E582.7485
G1 X195.952 Y114.932 E582.8337
G1 X196.431 Y115.123 E582.9195
G1 X197.031 Y115.456 E583.0336
G1 X197.437 Y115.757 E583.1176
G1 X197.819 Y116.113 E583.2045
G0 F9000 X197.556 Y116.252
G1 F960 X197.556 Y188.749 E595.2608
G0 F9000 X195.132 Y189.971
G1 F960 X195.132 Y115.031 E607.7233
G0 F9000 X192.708 Y114.975
G1 F960 X192.708 Y190.028 E620.2047
G0 F9000 X190.284 Y190.028
G1 F960 X190.284 Y114.975 E632.6861
G0 F9000 X187.860 Y114.975
G1 F960 X187.860 Y190.028 E645.1674
G0 F9000 X185.436 Y190.028
G1 F960 X185.436 Y114.975 E657.6488
G0 F9000 X183.012 Y114.975
G1 F960 X183.012 Y190.028 E670.1302
G0 F9000 X180.588 Y190.028
G1 F960 X180.588 Y114.975 E682.6115
G0 F9000 X178.164 Y114.975
G1 F960 X178.164 Y190.028 E695.0929
G0 F9000 X175.740 Y190.028
G1 F960 X175.740 Y114.975 E707.5743
G0 F9000 X173.316 Y114.975
G1 F960 X173.316 Y190.028 E720.0556
G0 F9000 X170.892 Y190.028
G1 F960 X170.892 Y114.975 E732.5370
G0 F9000 X168.468 Y114.975
G1 F960 X168.468 Y190.028 E745.0184
G0 F9000 X166.044 Y190.028
G1 F960 X166.044 Y114.974 E757.4999
G0 F9000 X163.620 Y114.974
G1 F960 X163.620 Y190.028 E769.9814
G0 F9000 X161.196 Y190.028
G1 F960 X161.196 Y114.974 E782.4629
G0 F9000 X158.772 Y114.974
G1 F960 X158.772 Y190.028 E794.9445
G0 F9000 X156.348 Y190.028
G1 F960 X156.348 Y114.974 E807.4260
G0 F9000 X153.924 Y114.974
G1 F960 X153.924 Y190.028 E819.9075
G0 F9000 X151.500 Y190.028
G1 F960 X151.500 Y114.974 E832.3891
G0 F9000 X149.076 Y114.974
G1 F960 X149.076 Y190.028 E844.8706
G0 F9000 X146.652 Y190.028
G1 F960 X146.652 Y114.974 E857.3521
G0 F9000 X144.228 Y114.974
G1 F960 X144.228 Y190.028 E869.8337
G0 F9000 X141.804 Y190.028
G1 F960 X141.804 Y114.974 E882.3152
G0 F9000 X139.380 Y114.974
G1 F960 X139.380 Y190.028 E894.7967
G0 F9000 X136.956 Y190.028
G1 F960 X136.956 Y114.973 E907.2784
G0 F9000 X134.532 Y114.973
G1 F960 X134.532 Y190.028 E919.7601
G0 F9000 X132.108 Y190.028
G1 F960 X132.108 Y114.973 E932.2418
G0 F9000 X129.684 Y114.973
G1 F960 X129.684 Y190.028 E944.7235
G0 F9000 X127.260 Y190.028
G1 F960 X127.260 Y114.973 E957.2052
G0 F9000 X124.836 Y114.973
G1 F960 X124.836 Y190.028 E969.6869
G0 F9000 X122.412 Y190.028
G1 F960 X122.412 Y114.973 E982.1686
G0 F9000 X119.988 Y114.973
G1 F960 X119.988 Y190.028 E994.6503
G0 F9000 X117.564 Y190.028
G1 F960 X117.564 Y114.973 E1007.1320
G0 F9000 X115.140 Y114.973
G1 F960 X115.140 Y190.028 E1019.6137
G0 F9000 X112.716 Y190.028
G1 F960 X112.716 Y114.973 E1032.0954
G0 F9000 X110.292 Y114.984
G1 F960 X110.292 Y190.015 E1044.5731
G0 F9000 X107.868 Y189.124
G1 F960 X107.868 Y115.882 E1056.7533
;PRINTING_TIME: 604
;REMAINING_TIME: 4205
;LAYER:-1
;Z:1.380
;HEIGHT:0.380
;PRINTING: NON-OBJECT
;PRINTING_ID: -1
G0 F300 Z1.380
G0 F9000 X107.864 Y115.800
;TYPE:RAFT
;WIDTH:0.600
G1 F1800 X197.144 Y115.800 E1065.2163
G0 F9000 X198.232 Y117.000
G1 F1800 X106.763 Y117.000 E1073.8867
G0 F9000 X106.259 Y118.200
G1 F1800 X198.741 Y118.200 E1082.6532
G0 F9000 X198.887 Y119.400
G1 F1800 X106.109 Y119.400 E1091.4478
G0 F9000 X106.109 Y120.600
G1 F1800 X198.887 Y120.600 E1100.2423
G0 F9000 X198.887 Y121.800
G1 F1800 X106.109 Y121.800 E1109.0369
G0 F9000 X106.109 Y123.000
G1 F1800 X198.887 Y123.000 E1117.8315
G0 F9000 X198.887 Y124.200
G1 F1800 X106.109 Y124.200 E1126.6260
G0 F9000 X106.109 Y125.400
G1 F1800 X198.887 Y125.400 E1135.4206
G0 F9000 X198.887 Y126.600
G1 F1800 X106.109 Y126.600 E1144.2151
G0 F9000 X106.109 Y127.800
G1 F1800 X198.887 Y127.800 E1153.0097
G0 F9000 X198.887 Y129.000
G1 F1800 X106.109 Y129.000 E1161.8042
G0 F9000 X106.109 Y130.200
G1 F1800 X198.887 Y130.200 E1170.5988
G0 F9000 X198.887 Y131.400
G1 F1800 X106.109 Y131.400 E1179.3933
G0 F9000 X106.109 Y132.600
G1 F1800 X198.887 Y132.600 E1188.1879
G0 F9000 X198.887 Y133.800
G1 F1800 X106.109 Y133.800 E1196.9825
G0 F9000 X106.109 Y135.000
G1 F1800 X198.887 Y135.000 E1205.7770
G0 F9000 X198.887 Y136.200
G1 F1800 X106.109 Y136.200 E1214.5716
G0 F9000 X106.109 Y137.400
G1 F1800 X198.887 Y137.400 E1223.3661
G0 F9000 X198.887 Y138.600
G1 F1800 X106.109 Y138.600 E1232.1607
G0 F9000 X106.109 Y139.800
G1 F1800 X198.887 Y139.800 E1240.9552
G0 F9000 X198.887 Y141.000
G1 F1800 X106.109 Y141.000 E1249.7498
G0 F9000 X106.109 Y142.200
G1 F1800 X198.887 Y142.200 E1258.5443
G0 F9000 X198.887 Y143.400
G1 F1800 X106.109 Y143.400 E1267.3389
G0 F9000 X106.109 Y144.600
G1 F1800 X198.887 Y144.600 E1276.1335
G0 F9000 X198.887 Y145.800
G1 F1800 X106.109 Y145.800 E1284.9280
G0 F9000 X106.109 Y147.000
G1 F1800 X198.887 Y147.000 E1293.7226
G0 F9000 X198.887 Y148.200
G1 F1800 X106.109 Y148.200 E1302.5171
G0 F9000 X106.109 Y149.400
G1 F1800 X198.887 Y149.400 E1311.3117
G0 F9000 X198.887 Y150.600
G1 F1800 X106.109 Y150.600 E1320.1062
G0 F9000 X106.109 Y151.800
G1 F1800 X198.887 Y151.800 E1328.9008
G0 F9000 X198.887 Y153.000
G1 F1800 X106.109 Y153.000 E1337.6953
G0 F9000 X106.109 Y154.200
G1 F1800 X198.887 Y154.200 E1346.4899
G0 F9000 X198.887 Y155.400
G1 F1800 X106.109 Y155.400 E1355.2844
G0 F9000 X106.109 Y156.600
G1 F1800 X198.887 Y156.600 E1364.0790
G0 F9000 X198.887 Y157.800
G1 F1800 X106.109 Y157.800 E1372.8736
G0 F9000 X106.109 Y159.000
G1 F1800 X198.887 Y159.000 E1381.6681
G0 F9000 X198.887 Y160.200
G1 F1800 X106.109 Y160.200 E1390.4627
G0 F9000 X106.109 Y161.400
G1 F1800 X198.887 Y161.400 E1399.2572
G0 F9000 X198.887 Y162.600
G1 F1800 X106.109 Y162.600 E1408.0518
G0 F9000 X106.109 Y163.800
G1 F1800 X198.887 Y163.800 E1416.8463
G0 F9000 X198.887 Y165.000
G1 F1800 X106.109 Y165.000 E1425.6409
G0 F9000 X106.109 Y166.200
G1 F1800 X198.887 Y166.200 E1434.4354
G0 F9000 X198.887 Y167.400
G1 F1800 X106.109 Y167.400 E1443.2300
G0 F9000 X106.109 Y168.600
G1 F1800 X198.887 Y168.600 E1452.0246
G0 F9000 X198.887 Y169.800
G1 F1800 X106.109 Y169.800 E1460.8191
G0 F9000 X106.109 Y171.000
G1 F1800 X198.887 Y171.000 E1469.6137
G0 F9000 X198.887 Y172.200
G1 F1800 X106.109 Y172.200 E1478.4082
G0 F9000 X106.109 Y173.400
G1 F1800 X198.887 Y173.400 E1487.2028
G0 F9000 X198.887 Y174.600
G1 F1800 X106.109 Y174.600 E1495.9973
G0 F9000 X106.109 Y175.800
G1 F1800 X198.887 Y175.800 E1504.7919
G0 F9000 X198.887 Y177.000
G1 F1800 X106.109 Y177.000 E1513.5864
G0 F9000 X106.109 Y178.200
G1 F1800 X198.887 Y178.200 E1522.3810
G0 F9000 X198.887 Y179.400
G1 F1800 X106.109 Y179.400 E1531.1755
G0 F9000 X106.109 Y180.600
G1 F1800 X198.887 Y180.600 E1539.9701
G0 F9000 X198.887 Y181.800
G1 F1800 X106.109 Y181.800 E1548.7647
G0 F9000 X106.109 Y183.000
G1 F1800 X198.887 Y183.000 E1557.5592
G0 F9000 X198.887 Y184.200
G1 F1800 X106.109 Y184.200 E1566.3538
G0 F9000 X106.109 Y185.400
G1 F1800 X198.887 Y185.400 E1575.1483
G0 F9000 X198.787 Y186.600
G1 F1800 X106.208 Y186.600 E1583.9240
G0 F9000 X106.648 Y187.800
G1 F1800 X198.347 Y187.800 E1592.6163
G0 F9000 X197.393 Y189.000
G1 F1800 X107.611 Y189.000 E1601.1269
;PRINTING_TIME: 800
;REMAINING_TIME: 4009
;LAYER:-1
;Z:1.600
;HEIGHT:0.220
;PRINTING: NON-OBJECT
;PRINTING_ID: -1
G0 F300 Z1.600
G0 F9000 X107.969 Y189.365
;TYPE:RAFT
;WIDTH:0.400
G1 F3600 X106.058 Y186.055 E1601.3688
G0 F9000 X106.039 Y185.080
G1 F3600 X108.767 Y189.805 E1601.7141
G0 F9000 X109.441 Y190.029
G1 F3600 X106.039 Y184.138 E1602.1447
G0 F9000 X106.039 Y183.195
G1 F3600 X110.047 Y190.137 E1602.6520
G0 F9000 X110.608 Y190.167
G1 F3600 X106.039 Y182.253 E1603.2304
G0 F9000 X106.039 Y181.311
G1 F3600 X111.152 Y190.167 E1603.8777
G0 F9000 X111.695 Y190.166
G1 F3600 X106.039 Y180.370 E1604.5936
G0 F9000 X106.039 Y179.427
G1 F3600 X112.239 Y190.166 E1605.3785
G0 F9000 X112.783 Y190.166
G1 F3600 X106.039 Y178.485 E1606.2322
G0 F9000 X106.039 Y177.543
G1 F3600 X113.327 Y190.166 E1607.1548
G0 F9000 X113.871 Y190.166
G1 F3600 X106.039 Y176.601 E1608.1462
G0 F9000 X106.039 Y175.659
G1 F3600 X114.415 Y190.166 E1609.2064
G0 F9000 X114.959 Y190.166
G1 F3600 X106.039 Y174.717 E1610.3356
G0 F9000 X106.039 Y173.775
G1 F3600 X115.502 Y190.167 E1611.5336
G0 F9000 X116.046 Y190.167
G1 F3600 X106.039 Y172.833 E1612.8004
G0 F9000 X106.039 Y171.891
G1 F3600 X116.590 Y190.167 E1614.1361
G0 F9000 X117.134 Y190.167
G1 F3600 X106.039 Y170.949 E1615.5406
G0 F9000 X106.039 Y170.007
G1 F3600 X117.678 Y190.167 E1617.0140
G0 F9000 X118.222 Y190.167
G1 F3600 X106.039 Y169.065 E1618.5563
G0 F9000 X106.039 Y168.123
G1 F3600 X118.766 Y190.167 E1620.1674
G0 F9000 X119.310 Y190.167
G1 F3600 X106.039 Y167.181 E1621.8473
G0 F9000 X106.039 Y166.239
G1 F3600 X119.853 Y190.166 E1623.5960
G0 F9000 X120.397 Y190.166
G1 F3600 X106.039 Y165.297 E1625.4136
G0 F9000 X106.039 Y164.355
G1 F3600 X120.941 Y190.166 E1627.3000
G0 F9000 X121.485 Y190.166
G1 F3600 X106.039 Y163.413 E1629.2553
G0 F9000 X106.039 Y162.471
G1 F3600 X122.029 Y190.166 E1631.2794
G0 F9000 X122.573 Y190.166
G1 F3600 X106.039 Y161.529 E1633.3724
G0 F9000 X106.039 Y160.587
G1 F3600 X123.117 Y190.167 E1635.5342
G0 F9000 X123.660 Y190.167
G1 F3600 X106.039 Y159.645 E1637.7649
G0 F9000 X106.039 Y158.703
G1 F3600 X124.204 Y190.167 E1640.0645
G0 F9000 X124.748 Y190.167
G1 F3600 X106.039 Y157.761 E1642.4329
G0 F9000 X106.039 Y156.819
