;Sliced by ideaMaker 4.2.3.5680, 2022-06-09 14:02:07 UTC-0500
;Dimension: 305.000 305.000 305.000 0.400
;Plate Shape: 0
;Origin Center: 0
;Extruder Offset #1: 25.000 0.000
;Filament Diameter #1: 1.750
;Filament Diameter #2: 1.750
;Filament Compensation #1: 94.00
;Filament Compensation #2: 100.00
;Filament Density #1: 1240.00
;Filament Density #2: 1240.00
;Filament Type #1: PLA
;Filament Type #2: 
;Filament Name #1: [Raise3D] PLA 1.75mm
;Filament Name #2: 
;Firmware: Marlin
;Bounding Box: 105.525 199.473 112.438 192.563 0.000 6.320
;Model Gap: 0.200
M221 T0 S94.00
M140 S60.00
M104 T0 S215.00
M109 T0 S215.00
T0
M190 S60.00
G21
G90
M82
M107
G28 X0 Y0
G28 Z0
G1 Z15.0 F300
G92 E0
G1 F140 E29
G1 X20 Y0 F140 E30
G92 E0
G1 F9000.0
M117 Printing...
M1001
;TOTAL_NUM: 1
;PRINTING_TIME: 0
;REMAINING_TIME: 5246
M106 S0
;LAYER:-2
;Z:0.500
;HEIGHT:0.500
;PRINTING: NON-OBJECT
;PRINTING_ID: -1
G0 F9000 X107.248 Y114.437
G0 F300 Z0.500
;TYPE:RAFT
;WIDTH:0.800
G1 F480 X107.830 Y113.889 E0.1329
G1 X108.254 Y113.579 E0.2203
G1 X108.686 Y113.333 E0.3030
G1 X109.175 Y113.120 E0.3917
G1 X109.828 Y112.937 E0.5044
G1 X110.333 Y112.861 E0.5894
G1 X110.806 Y112.838 E0.6681
G1 X194.302 Y112.841 E14.5536
G1 X194.673 Y112.862 E14.6154
G1 X195.208 Y112.943 E14.7053
G1 X195.702 Y113.078 E14.7905
G1 X196.183 Y113.269 E14.8766
G1 X196.649 Y113.519 E14.9645
G1 X197.084 Y113.821 E15.0526
G1 X197.672 Y114.354 E15.1846
G1 X198.024 Y114.743 E15.2718
G1 X198.327 Y115.158 E15.3573
G1 X198.661 Y115.769 E15.4731
G1 X198.840 Y116.223 E15.5542
G1 X198.976 Y116.741 E15.6433
G1 X199.053 Y117.256 E15.7299
G1 X199.073 Y117.629 E15.7920
G1 X199.072 Y187.395 E27.3941
G1 X199.051 Y187.755 E27.4541
G1 X198.970 Y188.295 E27.5449
G1 X198.835 Y188.789 E27.6301
G1 X198.644 Y189.270 E27.7161
G1 X198.394 Y189.736 E27.8041
G1 X198.092 Y190.171 E27.8921
G1 X197.752 Y190.563 E27.9784
G1 X197.180 Y191.103 E28.1093
G1 X196.748 Y191.420 E28.1984
G1 X196.314 Y191.667 E28.2814
G1 X195.825 Y191.880 E28.3701
G1 X195.172 Y192.063 E28.4829
G1 X194.667 Y192.139 E28.5678
G1 X194.194 Y192.162 E28.6466
G1 X110.806 Y192.163 E42.5141
G1 X110.318 Y192.138 E42.5953
G1 X109.800 Y192.059 E42.6825
G1 X109.298 Y191.923 E42.7689
G1 X108.817 Y191.732 E42.8550
G1 X108.351 Y191.482 E42.9430
G1 X107.923 Y191.186 E43.0295
G1 X107.503 Y190.818 E43.1224
G1 X107.244 Y190.557 E43.1835
G1 X106.876 Y190.131 E43.2771
G1 X106.663 Y189.829 E43.3386
G1 X106.411 Y189.387 E43.4232
G1 X106.207 Y188.908 E43.5098
G1 X106.022 Y188.252 E43.6231
G1 X105.947 Y187.738 E43.7095
G1 X105.925 Y187.280 E43.7858
G1 X105.925 Y117.717 E55.3541
G1 X105.949 Y117.239 E55.4337
G1 X106.030 Y116.705 E55.5235
G1 X106.167 Y116.206 E55.6096
G1 X106.356 Y115.730 E55.6948
G1 X106.606 Y115.264 E55.7827
G1 X106.908 Y114.829 E55.8708
G1 X107.248 Y114.437 E55.9571
G0 F9000 X107.868 Y114.237
G1 F480 X107.868 Y190.764 E68.6836
G0 F9000 X110.292 Y191.851
G1 F480 X110.292 Y113.150 E81.7716
G0 F9000 X112.716 Y113.119
G1 F480 X112.716 Y191.883 E94.8701
G0 F9000 X115.140 Y191.883
G1 F480 X115.140 Y113.119 E107.9686
G0 F9000 X117.564 Y113.119
G1 F480 X117.564 Y191.883 E121.0671
G0 F9000 X119.988 Y191.883
G1 F480 X119.988 Y113.119 E134.1656
G0 F9000 X122.412 Y113.119
G1 F480 X122.412 Y191.883 E147.2641
G0 F9000 X124.836 Y191.883
G1 F480 X124.836 Y113.119 E160.3626
G0 F9000 X127.260 Y113.119
G1 F480 X127.260 Y191.883 E173.4611
G0 F9000 X129.684 Y191.883
G1 F480 X129.684 Y113.119 E186.5597
G0 F9000 X132.108 Y113.119
G1 F480 X132.108 Y191.883 E199.6582
G0 F9000 X134.532 Y191.883
G1 F480 X134.532 Y113.119 E212.7567
G0 F9000 X136.956 Y113.119
G1 F480 X136.956 Y191.883 E225.8552
G0 F9000 X139.380 Y191.883
G1 F480 X139.380 Y113.120 E238.9535
G0 F9000 X141.804 Y113.120
G1 F480 X141.804 Y191.883 E252.0518
G0 F9000 X144.228 Y191.883
G1 F480 X144.228 Y113.120 E265.1502
G0 F9000 X146.652 Y113.120
G1 F480 X146.652 Y191.883 E278.2485
G0 F9000 X149.076 Y191.883
G1 F480 X149.076 Y113.120 E291.3469
G0 F9000 X151.500 Y113.120
G1 F480 X151.500 Y191.883 E304.4452
G0 F9000 X153.924 Y191.883
G1 F480 X153.924 Y113.120 E317.5436
G0 F9000 X156.348 Y113.120
G1 F480 X156.348 Y191.883 E330.6419
G0 F9000 X158.772 Y191.883
G1 F480 X158.772 Y113.120 E343.7402
G0 F9000 X161.196 Y113.120
G1 F480 X161.196 Y191.883 E356.8386
G0 F9000 X163.620 Y191.883
G1 F480 X163.620 Y113.120 E369.9369
G0 F9000 X166.044 Y113.120
G1 F480 X166.044 Y191.883 E383.0353
G0 F9000 X168.468 Y191.883
G1 F480 X168.468 Y113.121 E396.1334
G0 F9000 X170.892 Y113.121
G1 F480 X170.892 Y191.883 E409.2316
G0 F9000 X173.316 Y191.883
G1 F480 X173.316 Y113.121 E422.3298
G0 F9000 X175.740 Y113.121
G1 F480 X175.740 Y191.883 E435.4279
G0 F9000 X178.164 Y191.883
G1 F480 X178.164 Y113.121 E448.5261
G0 F9000 X180.588 Y113.121
G1 F480 X180.588 Y191.883 E461.6243
G0 F9000 X183.012 Y191.883
G1 F480 X183.012 Y113.121 E474.7225
G0 F9000 X185.436 Y113.121
G1 F480 X185.436 Y191.883 E487.8206
G0 F9000 X187.860 Y191.883
G1 F480 X187.860 Y113.121 E500.9188
G0 F9000 X190.284 Y113.121
G1 F480 X190.284 Y191.883 E514.0170
G0 F9000 X192.708 Y191.883
G1 F480 X192.708 Y113.121 E527.1152
G0 F9000 X195.132 Y113.214
G1 F480 X195.132 Y191.785 E540.1816
G0 F9000 X197.556 Y190.363
G1 F480 X197.556 Y114.644 E552.7737
;PRINTING_TIME: 420
;REMAINING_TIME: 4826
M106 S255
;LAYER:-2
;Z:1.000
;HEIGHT:0.500
;PRINTING: NON-OBJECT
;PRINTING_ID: -1
G0 F300 Z1.000
G0 F9000 X197.672 Y114.354
;TYPE:RAFT
;WIDTH:0.800
G1 F960 X198.024 Y114.743 E552.8609
G1 X198.327 Y115.158 E552.9464
G1 X198.661 Y115.769 E553.0622
G1 X198.840 Y116.223 E553.1433
G1 X198.976 Y116.741 E553.2324
G1 X199.053 Y117.256 E553.3190
G1 X199.073 Y117.629 E553.3811
G1 X199.072 Y187.395 E564.9833
G1 X199.051 Y187.755 E565.0432
G1 X198.970 Y188.295 E565.1340
G1 X198.835 Y188.789 E565.2192
G1 X198.644 Y189.270 E565.3053
G1 X198.394 Y189.736 E565.3932
G1 X198.092 Y190.171 E565.4813
G1 X197.752 Y190.563 E565.5676
G1 X197.180 Y191.103 E565.6984
G1 X196.748 Y191.420 E565.7875
G1 X196.314 Y191.667 E565.8705
G1 X195.825 Y191.880 E565.9592
G1 X195.172 Y192.063 E566.0720
G1 X194.667 Y192.139 E566.1569
G1 X194.194 Y192.162 E566.2357
G1 X110.806 Y192.163 E580.1032
G1 X110.318 Y192.138 E580.1844
G1 X109.800 Y192.059 E580.2716
G1 X109.298 Y191.923 E580.3581
G1 X108.817 Y191.732 E580.4441
G1 X108.351 Y191.482 E580.5321
G1 X107.923 Y191.186 E580.6186
G1 X107.503 Y190.818 E580.7115
G1 X107.244 Y190.557 E580.7726
G1 X106.876 Y190.131 E580.8663
G1 X106.663 Y189.829 E580.9277
G1 X106.411 Y189.387 E581.0123
G1 X106.207 Y188.908 E581.0989
G1 X106.022 Y188.252 E581.2123
G1 X105.947 Y187.738 E581.2986
G1 X105.925 Y187.280 E581.3749
G1 X105.925 Y117.717 E592.9433
G1 X105.949 Y117.239 E593.0229
G1 X106.030 Y116.705 E593.1127
G1 X106.167 Y116.206 E593.1987
G1 X106.356 Y115.730 E593.2839
G1 X106.606 Y115.264 E593.3718
G1 X106.908 Y114.829 E593.4599
G1 X107.248 Y114.437 E593.5462
G1 X107.830 Y113.889 E593.6791
G1 X108.254 Y113.579 E593.7665
G1 X108.686 Y113.333 E593.8492
G1 X109.175 Y113.120 E593.9379
G1 X109.828 Y112.937 E594.0506
G1 X110.333 Y112.861 E594.1356
G1 X110.806 Y112.838 E594.2143
G1 X194.302 Y112.841 E608.0998
G1 X194.673 Y112.862 E608.1616
G1 X195.208 Y112.943 E608.2516
G1 X195.702 Y113.078 E608.3367
G1 X196.183 Y113.269 E608.4228
G1 X196.649 Y113.519 E608.5107
G1 X197.084 Y113.821 E608.5988
G1 X197.672 Y114.354 E608.7308
G0 F9000 X197.556 Y114.644
G1 F960 X197.556 Y190.363 E621.3229
G0 F9000 X195.132 Y191.785
G1 F960 X195.132 Y113.214 E634.3893
G0 F9000 X192.708 Y113.121
G1 F960 X192.708 Y191.883 E647.4875
G0 F9000 X190.284 Y191.883
G1 F960 X190.284 Y113.121 E660.5857
G0 F9000 X187.860 Y113.121
G1 F960 X187.860 Y191.883 E673.6838
G0 F9000 X185.436 Y191.883
G1 F960 X185.436 Y113.121 E686.7820
G0 F9000 X183.012 Y113.121
G1 F960 X183.012 Y191.883 E699.8802
G0 F9000 X180.588 Y191.883
G1 F960 X180.588 Y113.121 E712.9783
G0 F9000 X178.164 Y113.121
G1 F960 X178.164 Y191.883 E726.0765
G0 F9000 X175.740 Y191.883
G1 F960 X175.740 Y113.121 E739.1747
G0 F9000 X173.316 Y113.121
G1 F960 X173.316 Y191.883 E752.2729
G0 F9000 X170.892 Y191.883
G1 F960 X170.892 Y113.121 E765.3710
G0 F9000 X168.468 Y113.121
G1 F960 X168.468 Y191.883 E778.4692
G0 F9000 X166.044 Y191.883
G1 F960 X166.044 Y113.120 E791.5676
G0 F9000 X163.620 Y113.120
G1 F960 X163.620 Y191.883 E804.6659
G0 F9000 X161.196 Y191.883
G1 F960 X161.196 Y113.120 E817.7642
G0 F9000 X158.772 Y113.120
G1 F960 X158.772 Y191.883 E830.8626
G0 F9000 X156.348 Y191.883
G1 F960 X156.348 Y113.120 E843.9609
G0 F9000 X153.924 Y113.120
G1 F960 X153.924 Y191.883 E857.0593
G0 F9000 X151.500 Y191.883
G1 F960 X151.500 Y113.120 E870.1576
G0 F9000 X149.076 Y113.120
G1 F960 X149.076 Y191.883 E883.2559
G0 F9000 X146.652 Y191.883
G1 F960 X146.652 Y113.120 E896.3543
G0 F9000 X144.228 Y113.120
G1 F960 X144.228 Y191.883 E909.4526
G0 F9000 X141.804 Y191.883
G1 F960 X141.804 Y113.120 E922.5510
G0 F9000 X139.380 Y113.120
G1 F960 X139.380 Y191.883 E935.6493
G0 F9000 X136.956 Y191.883
G1 F960 X136.956 Y113.119 E948.7478
G0 F9000 X134.532 Y113.119
G1 F960 X134.532 Y191.883 E961.8463
G0 F9000 X132.108 Y191.883
G1 F960 X132.108 Y113.119 E974.9448
G0 F9000 X129.684 Y113.119
G1 F960 X129.684 Y191.883 E988.0433
G0 F9000 X127.260 Y191.883
G1 F960 X127.260 Y113.119 E1001.1418
G0 F9000 X124.836 Y113.119
G1 F960 X124.836 Y191.883 E1014.2403
G0 F9000 X122.412 Y191.883
G1 F960 X122.412 Y113.119 E1027.3388
G0 F9000 X119.988 Y113.119
G1 F960 X119.988 Y191.883 E1040.4373
G0 F9000 X117.564 Y191.883
G1 F960 X117.564 Y113.119 E1053.5359
G0 F9000 X115.140 Y113.119
G1 F960 X115.140 Y191.883 E1066.6344
G0 F9000 X112.716 Y191.883
G1 F960 X112.716 Y113.119 E1079.7329
G0 F9000 X110.292 Y113.150
G1 F960 X110.292 Y191.851 E1092.8209
G0 F9000 X107.868 Y190.764
G1 F960 X107.868 Y114.237 E1105.5474
;PRINTING_TIME: 631
;REMAINING_TIME: 4615
;LAYER:-1
;Z:1.380
;HEIGHT:0.380
;PRINTING: NON-OBJECT
;PRINTING_ID: -1
G0 F300 Z1.380
G0 F9000 X109.059 Y113.400
;TYPE:RAFT
;WIDTH:0.600
G1 F1800 X195.947 Y113.400 E1113.7836
G0 F9000 X197.614 Y114.600
G1 F1800 X107.386 Y114.600 E1122.3365
G0 F9000 X106.557 Y115.800
G1 F1800 X198.440 Y115.800 E1131.0462
G0 F9000 X198.803 Y117.000
G1 F1800 X106.198 Y117.000 E1139.8243
G0 F9000 X106.135 Y118.200
G1 F1800 X198.862 Y118.200 E1148.6141
G0 F9000 X198.862 Y119.400
G1 F1800 X106.134 Y119.400 E1157.4039
G0 F9000 X106.134 Y120.600
G1 F1800 X198.862 Y120.600 E1166.1937
G0 F9000 X198.862 Y121.800
G1 F1800 X106.134 Y121.800 E1174.9835
G0 F9000 X106.134 Y123.000
G1 F1800 X198.862 Y123.000 E1183.7733
G0 F9000 X198.862 Y124.200
G1 F1800 X106.134 Y124.200 E1192.5631
G0 F9000 X106.134 Y125.400
G1 F1800 X198.862 Y125.400 E1201.3529
G0 F9000 X198.862 Y126.600
G1 F1800 X106.134 Y126.600 E1210.1428
G0 F9000 X106.134 Y127.800
G1 F1800 X198.862 Y127.800 E1218.9326
G0 F9000 X198.862 Y129.000
G1 F1800 X106.134 Y129.000 E1227.7224
G0 F9000 X106.134 Y130.200
G1 F1800 X198.862 Y130.200 E1236.5122
G0 F9000 X198.862 Y131.400
G1 F1800 X106.134 Y131.400 E1245.3020
G0 F9000 X106.134 Y132.600
G1 F1800 X198.862 Y132.600 E1254.0918
G0 F9000 X198.862 Y133.800
G1 F1800 X106.134 Y133.800 E1262.8817
G0 F9000 X106.134 Y135.000
G1 F1800 X198.862 Y135.000 E1271.6715
G0 F9000 X198.862 Y136.200
G1 F1800 X106.134 Y136.200 E1280.4613
G0 F9000 X106.134 Y137.400
G1 F1800 X198.862 Y137.400 E1289.2511
G0 F9000 X198.862 Y138.600
G1 F1800 X106.134 Y138.600 E1298.0409
G0 F9000 X106.134 Y139.800
G1 F1800 X198.862 Y139.800 E1306.8307
G0 F9000 X198.862 Y141.000
G1 F1800 X106.134 Y141.000 E1315.6205
G0 F9000 X106.134 Y142.200
G1 F1800 X198.862 Y142.200 E1324.4104
G0 F9000 X198.862 Y143.400
G1 F1800 X106.134 Y143.400 E1333.2002
G0 F9000 X106.134 Y144.600
G1 F1800 X198.862 Y144.600 E1341.9900
G0 F9000 X198.862 Y145.800
G1 F1800 X106.134 Y145.800 E1350.7798
G0 F9000 X106.134 Y147.000
G1 F1800 X198.862 Y147.000 E1359.5696
G0 F9000 X198.862 Y148.200
G1 F1800 X106.134 Y148.200 E1368.3594
G0 F9000 X106.134 Y149.400
G1 F1800 X198.862 Y149.400 E1377.1493
G0 F9000 X198.862 Y150.600
G1 F1800 X106.134 Y150.600 E1385.9391
G0 F9000 X106.134 Y151.800
G1 F1800 X198.862 Y151.800 E1394.7289
G0 F9000 X198.862 Y153.000
G1 F1800 X106.134 Y153.000 E1403.5187
G0 F9000 X106.134 Y154.200
G1 F1800 X198.862 Y154.200 E1412.3085
G0 F9000 X198.862 Y155.400
G1 F1800 X106.134 Y155.400 E1421.0983
G0 F9000 X106.134 Y156.600
G1 F1800 X198.862 Y156.600 E1429.8881
G0 F9000 X198.862 Y157.800
G1 F1800 X106.134 Y157.800 E1438.6780
G0 F9000 X106.134 Y159.000
G1 F1800 X198.862 Y159.000 E1447.4678
G0 F9000 X198.862 Y160.200
G1 F1800 X106.134 Y160.200 E1456.2576
G0 F9000 X106.134 Y161.400
G1 F1800 X198.862 Y161.400 E1465.0474
G0 F9000 X198.862 Y162.600
G1 F1800 X106.134 Y162.600 E1473.8372
G0 F9000 X106.134 Y163.800
G1 F1800 X198.862 Y163.800 E1482.6270
G0 F9000 X198.862 Y165.000
G1 F1800 X106.134 Y165.000 E1491.4169
G0 F9000 X106.134 Y166.200
G1 F1800 X198.862 Y166.200 E1500.2067
G0 F9000 X198.862 Y167.400
G1 F1800 X106.134 Y167.400 E1508.9965
G0 F9000 X106.134 Y168.600
G1 F1800 X198.862 Y168.600 E1517.7863
G0 F9000 X198.862 Y169.800
G1 F1800 X106.134 Y169.800 E1526.5761
G0 F9000 X106.134 Y171.000
G1 F1800 X198.862 Y171.000 E1535.3659
G0 F9000 X198.862 Y172.200
G1 F1800 X106.134 Y172.200 E1544.1558
G0 F9000 X106.134 Y173.400
G1 F1800 X198.862 Y173.400 E1552.9456
G0 F9000 X198.862 Y174.600
G1 F1800 X106.134 Y174.600 E1561.7354
G0 F9000 X106.134 Y175.800
G1 F1800 X198.862 Y175.800 E1570.5252
G0 F9000 X198.862 Y177.000
G1 F1800 X106.134 Y177.000 E1579.3150
G0 F9000 X106.134 Y178.200
G1 F1800 X198.862 Y178.200 E1588.1048
G0 F9000 X198.862 Y179.400
G1 F1800 X106.134 Y179.400 E1596.8946
G0 F9000 X106.134 Y180.600
G1 F1800 X198.862 Y180.600 E1605.6845
G0 F9000 X198.862 Y181.800
G1 F1800 X106.134 Y181.800 E1614.4743
G0 F9000 X106.134 Y183.000
G1 F1800 X198.862 Y183.000 E1623.2641
G0 F9000 X198.862 Y184.200
G1 F1800 X106.134 Y184.200 E1632.0539
G0 F9000 X106.134 Y185.400
G1 F1800 X198.862 Y185.400 E1640.8437
G0 F9000 X198.862 Y186.600
G1 F1800 X106.134 Y186.600 E1649.6335
G0 F9000 X106.166 Y187.800
G1 F1800 X198.831 Y187.800 E1658.4174
G0 F9000 X198.525 Y189.000
G1 F1800 X106.473 Y189.000 E1667.1431
G0 F9000 X107.212 Y190.200
G1 F1800 X197.787 Y190.200 E1675.7288
G0 F9000 X196.358 Y191.400
G1 F1800 X108.640 Y191.400 E1684.0438
;PRINTING_TIME: 840
;REMAINING_TIME: 4406
;LAYER:-1
;Z:1.600
;HEIGHT:0.220
;PRINTING: NON-OBJECT
;PRINTING_ID: -1
G0 F300 Z1.600
G0 F9000 X107.725 Y190.826
;TYPE:RAFT
;WIDTH:0.400
G1 F3600 X106.138 Y188.077 E1684.2447
G0 F9000 X106.064 Y187.007
G1 F3600 X108.647 Y191.480 E1684.5716
G0 F9000 X109.374 Y191.797
G1 F3600 X106.064 Y186.065 E1684.9905
G0 F9000 X106.064 Y185.123
G1 F3600 X110.004 Y191.947 E1685.4893
G0 F9000 X110.584 Y192.010
G1 F3600 X106.064 Y184.181 E1686.0615
G0 F9000 X106.065 Y183.239
G1 F3600 X111.135 Y192.021 E1686.7033
G0 F9000 X111.678 Y192.021
G1 F3600 X106.064 Y182.297 E1687.4140
G0 F9000 X106.064 Y181.355
G1 F3600 X112.222 Y192.021 E1688.1935
G0 F9000 X112.766 Y192.021
G1 F3600 X106.064 Y180.413 E1689.0419
G0 F9000 X106.064 Y179.471
G1 F3600 X113.310 Y192.021 E1689.9591
G0 F9000 X113.854 Y192.021
G1 F3600 X106.065 Y178.529 E1690.9452
G0 F9000 X106.064 Y177.587
G1 F3600 X114.398 Y192.021 E1692.0001
G0 F9000 X114.942 Y192.021
G1 F3600 X106.064 Y176.645 E1693.1239
G0 F9000 X106.064 Y175.703
G1 F3600 X115.485 Y192.021 E1694.3165
G0 F9000 X116.029 Y192.021
G1 F3600 X106.064 Y174.761 E1695.5780
G0 F9000 X106.064 Y173.819
G1 F3600 X116.573 Y192.021 E1696.9083
G0 F9000 X117.117 Y192.021
G1 F3600 X106.064 Y172.877 E1698.3074
G0 F9000 X106.064 Y171.935
G1 F3600 X117.661 Y192.021 E1699.7754
G0 F9000 X118.205 Y192.021
G1 F3600 X106.064 Y170.993 E1701.3123
G0 F9000 X106.064 Y170.051
G1 F3600 X118.749 Y192.021 E1702.9180
G0 F9000 X119.292 Y192.021
G1 F3600 X106.064 Y169.109 E1704.5925
G0 F9000 X106.064 Y168.167
G1 F3600 X119.836 Y192.021 E1706.3359
G0 F9000 X120.380 Y192.021
G1 F3600 X106.064 Y167.225 E1708.1482
G0 F9000 X106.064 Y166.283
G1 F3600 X120.924 Y192.021 E1710.0292
G0 F9000 X121.468 Y192.021
G1 F3600 X106.064 Y165.341 E1711.9792
G0 F9000 X106.064 Y164.399
G1 F3600 X122.012 Y192.021 E1713.9980
G0 F9000 X122.556 Y192.021
